app/dist/common/images/r-stahl-ag.svg

<svg height="18" viewBox="0 0 18 18" width="18" xmlns="http://www.w3.org/2000/svg"><path d="m0 0h18v18h-18z" fill="#083f88"/><g fill="#fcfdfe"><path d="m6.3 4h5.4l2.3 2.3v5.4l-2.3 2.3h-5.43l-2.27-2.82v-4.89zm.4 1-1.7 1.7v4.12l1.74 2.18h4.55l1.71-1.7v-4.6l-1.7-1.7z"/><path d="m10 10.25c0-.4-.53-.58-1-.75-.88-.32-2-.76-2-1.75 0-1 1.08-1.75 2.09-1.75 1.1 0 1.91.97 1.91 2h-1c0-.5-.19-1-1-1-.5 0-1 .25-1 .75s.58.6 1 .75c.9.3 1.99.75 1.99 1.75 0 1.03-.84 1.75-1.88 1.75-1.18 0-2.11-.87-2.11-2h1c0 .38.38 1 1 1 .63 0 1-.34 1-.75z"/></g></svg>

<!-- by TradingView --><svg width="18" height="18" viewBox="0 0 18 18" xmlns="http://www.w3.org/2000/svg"><path fill="#083F88" d="M0 0h18v18H0z"/><path d="M6.3 4h5.4L14 6.3v5.4L11.7 14H6.27L4 11.18V6.29L6.3 4Zm.4 1L5 6.7v4.12L6.74 13h4.55L13 11.3V6.7L11.3 5H6.7Z" fill="#FCFDFE"/><path d="M10 10.25c0-.4-.53-.58-1-.75-.88-.32-2-.76-2-1.75C7 6.75 8.08 6 9.09 6c1.1 0 1.91.97 1.91 2h-1c0-.5-.19-1-1-1-.5 0-1 .25-1 .75s.58.6 1 .75c.9.3 1.99.75 1.99 1.75 0 1.03-.84 1.75-1.88 1.75C7.93 12 7 11.13 7 10h1c0 .38.38 1 1 1 .63 0 1-.34 1-.75Z" fill="#FCFDFE"/></svg>
